icons/ke.svg

<?xml version="1.0" ?>
<svg xmlns="http://www.w3.org/2000/svg" xmlns:ev="http://www.w3.org/2001/xml-events" xmlns:xlink="http://www.w3.org/1999/xlink" baseProfile="full" height="600px" version="1.1" viewBox="-164.52633088485322 -1030.3210000000001 10563.105970618239 12300.642" width="516px">
	<defs/>
	<path d="M 1097.0,10096.0 C 1021.0,10016.0 932.0,9916.0 899.0,9873.0 C 848.0,9806.0 842.0,9794.0 854.0,9781.0 C 900.0,9728.0 929.0,9627.0 935.0,9501.0 C 938.0,9440.0 955.0,9420.0 1001.0,9420.0 C 1035.0,9420.0 1060.0,9411.0 1060.0,9399.0 C 1060.0,9394.0 1053.0,9390.0 1045.0,9390.0 C 1037.0,9390.0 1026.0,9382.0 1021.0,9372.0 C 1007.0,9346.0 1029.0,9323.0 1082.0,9310.0 C 1121.0,9300.0 1129.0,9293.0 1137.0,9267.0 C 1146.0,9236.0 1147.0,9235.0 1201.0,9238.0 C 1251.0,9241.0 1257.0,9239.0 1286.0,9208.0 C 1314.0,9179.0 1318.0,9166.0 1323.0,9102.0 C 1329.0,9032.0 1328.0,9028.0 1299.0,8996.0 C 1263.0,8955.0 1259.0,8890.0 1290.0,8831.0 C 1300.0,8810.0 1319.0,8753.0 1331.0,8705.0 C 1351.0,8626.0 1356.0,8617.0 1386.0,8603.0 C 1420.0,8587.0 1429.0,8561.0 1456.0,8410.0 C 1460.0,8388.0 1478.0,8359.0 1503.0,8333.0 C 1541.0,8293.0 1548.0,8290.0 1596.0,8290.0 C 1646.0,8290.0 1649.0,8289.0 1658.0,8258.0 C 1664.0,8240.0 1671.0,8194.0 1675.0,8156.0 C 1682.0,8070.0 1702.0,8034.0 1746.0,8025.0 C 1774.0,8020.0 1784.0,8010.0 1805.0,7969.0 C 1819.0,7941.0 1839.0,7906.0 1850.0,7892.0 L 1871.0,7866.0 L 1827.0,7839.0 C 1803.0,7824.0 1780.0,7805.0 1777.0,7797.0 C 1774.0,7789.0 1798.0,7711.0 1831.0,7623.0 C 1886.0,7480.0 1891.0,7459.0 1887.0,7405.0 C 1883.0,7349.0 1885.0,7342.0 1917.0,7304.0 L 1950.0,7263.0 L 1929.0,7244.0 C 1910.0,7227.0 1909.0,7216.0 1911.0,7094.0 L 1914.0,6963.0 L 1881.0,6921.0 C 1863.0,6899.0 1835.0,6872.0 1819.0,6863.0 C 1796.0,6849.0 1790.0,6839.0 1790.0,6812.0 C 1790.0,6767.0 1766.0,6724.0 1731.0,6706.0 C 1694.0,6687.0 1681.0,6621.0 1705.0,6583.0 C 1714.0,6570.0 1720.0,6547.0 1718.0,6532.0 C 1715.0,6507.0 1710.0,6504.0 1648.0,6495.0 C 1587.0,6486.0 1575.0,6480.0 1520.0,6432.0 C 1487.0,6403.0 1460.0,6372.0 1460.0,6363.0 C 1460.0,6354.0 1454.0,6350.0 1446.0,6353.0 C 1438.0,6356.0 1416.0,6362.0 1397.0,6365.0 C 1365.0,6371.0 1362.0,6370.0 1351.0,6339.0 C 1345.0,6322.0 1340.0,6280.0 1340.0,6248.0 C 1340.0,6192.0 1336.0,6183.0 1290.0,6117.0 C 1263.0,6079.0 1221.0,6034.0 1198.0,6019.0 C 1151.0,5987.0 1142.0,5972.0 1141.0,5919.0 C 1140.0,5874.0 1115.0,5850.0 1067.0,5850.0 C 1039.0,5850.0 1027.0,5844.0 1010.0,5821.0 C 968.0,5761.0 939.0,5682.0 933.0,5609.0 L 927.0,5537.0 L 823.0,5418.0 C 767.0,5353.0 720.0,5298.0 720.0,5296.0 C 720.0,5295.0 747.0,5296.0 780.0,5298.0 C 837.0,5302.0 840.0,5301.0 840.0,5279.0 C 840.0,5267.0 830.0,5246.0 818.0,5233.0 C 797.0,5211.0 797.0,5207.0 811.0,5182.0 C 822.0,5161.0 835.0,5154.0 863.0,5152.0 C 886.0,5150.0 904.0,5142.0 910.0,5131.0 C 915.0,5121.0 937.0,5105.0 960.0,5096.0 C 997.0,5082.0 999.0,5078.0 989.0,5057.0 C 981.0,5039.0 982.0,5024.0 994.0,4995.0 C 1003.0,4975.0 1010.0,4949.0 1010.0,4939.0 C 1010.0,4907.0 1059.0,4914.0 1071.0,4948.0 C 1076.0,4963.0 1094.0,4984.0 1110.0,4994.0 C 1127.0,5003.0 1143.0,5022.0 1146.0,5036.0 C 1152.0,5057.0 1150.0,5072.0 1138.0,5145.0 C 1135.0,5162.0 1144.0,5166.0 1225.0,5176.0 C 1307.0,5186.0 1397.0,5215.0 1473.0,5255.0 C 1508.0,5273.0 1520.0,5267.0 1583.0,5205.0 C 1692.0,5098.0 1740.0,5006.0 1677.0,5024.0 C 1606.0,5045.0 1595.0,5043.0 1580.0,5008.0 C 1562.0,4968.0 1531.0,4962.0 1423.0,4980.0 C 1330.0,4996.0 1265.0,4987.0 1244.0,4955.0 C 1229.0,4932.0 1230.0,4928.0 1255.0,4884.0 L 1282.0,4838.0 L 1253.0,4802.0 C 1237.0,4782.0 1219.0,4765.0 1213.0,4763.0 C 1207.0,4761.0 1195.0,4777.0 1186.0,4800.0 C 1174.0,4831.0 1165.0,4840.0 1147.0,4840.0 C 1134.0,4840.0 1120.0,4837.0 1116.0,4833.0 C 1101.0,4818.0 1025.0,4832.0 1000.0,4855.0 C 956.0,4895.0 935.0,4895.0 905.0,4856.0 C 884.0,4829.0 879.0,4812.0 882.0,4785.0 C 886.0,4752.0 884.0,4750.0 858.0,4750.0 C 820.0,4750.0 759.0,4708.0 771.0,4689.0 C 785.0,4667.0 781.0,4637.0 760.0,4610.0 C 714.0,4552.0 758.0,4434.0 842.0,4390.0 C 869.0,4376.0 890.0,4359.0 890.0,4352.0 C 890.0,4345.0 877.0,4319.0 860.0,4295.0 C 844.0,4271.0 830.0,4240.0 830.0,4226.0 C 830.0,4204.0 826.0,4200.0 800.0,4200.0 C 770.0,4200.0 766.0,4193.0 769.0,4145.0 C 770.0,4134.0 759.0,4109.0 745.0,4090.0 C 722.0,4058.0 721.0,4055.0 737.0,4048.0 C 747.0,4045.0 772.0,4041.0 792.0,4041.0 C 819.0,4040.0 832.0,4034.0 840.0,4020.0 C 846.0,4009.0 861.0,4000.0 873.0,4000.0 C 893.0,4000.0 1863.0,3464.0 4220.0,2151.0 L 4836.0,1809.0 L 4858.0,1652.0 L 4880.0,1495.0 L 4835.0,1455.0 C 4795.0,1419.0 4790.0,1410.0 4784.0,1358.0 L 4777.0,1300.0 L 4811.0,1300.0 C 4830.0,1300.0 4864.0,1291.0 4888.0,1280.0 C 4927.0,1262.0 4930.0,1258.0 4930.0,1222.0 C 4930.0,1198.0 4937.0,1174.0 4948.0,1162.0 C 4977.0,1129.0 5750.0,551.0 6147.0,266.0 L 6520.0,-1.0 L 6557.0,25.0 C 6600.0,54.0 6626.0,57.0 6651.0,34.0 C 6663.0,23.0 6678.0,21.0 6704.0,25.0 C 6736.0,31.0 6740.0,36.0 6740.0,62.0 C 6740.0,78.0 6750.0,104.0 6762.0,121.0 L 6784.0,151.0 L 6801.0,118.0 L 6818.0,85.0 L 6825.0,135.0 C 6834.0,193.0 6866.0,257.0 6891.0,265.0 C 6903.0,269.0 6912.0,289.0 6920.0,328.0 C 6940.0,437.0 6974.0,515.0 7052.0,634.0 C 7177.0,826.0 7215.0,907.0 7233.0,1030.0 C 7249.0,1134.0 7287.0,1240.0 7337.0,1320.0 C 7349.0,1339.0 7363.0,1366.0 7368.0,1380.0 C 7375.0,1397.0 7406.0,1421.0 7464.0,1453.0 L 7551.0,1502.0 L 7549.0,1573.0 C 7547.0,1641.0 7550.0,1650.0 7599.0,1749.0 C 7645.0,1840.0 7649.0,1854.0 7637.0,1869.0 C 7603.0,1908.0 7599.0,1927.0 7610.0,2020.0 C 7616.0,2071.0 7626.0,2126.0 7634.0,2144.0 C 7668.0,2227.0 7900.0,2330.0 8051.0,2330.0 L 8127.0,2330.0 L 8168.0,2374.0 C 8191.0,2398.0 8219.0,2421.0 8232.0,2425.0 C 8294.0,2444.0 8327.0,2510.0 8299.0,2561.0 C 8287.0,2583.0 8307.0,2621.0 8320.0,2600.0 C 8324.0,2593.0 8336.0,2593.0 8359.0,2601.0 C 8388.0,2611.0 8391.0,2616.0 8388.0,2641.0 L 8383.0,2670.0 L 8407.0,2648.0 C 8424.0,2632.0 8429.0,2619.0 8425.0,2603.0 C 8421.0,2585.0 8424.0,2580.0 8440.0,2580.0 C 8480.0,2580.0 8500.0,2599.0 8500.0,2635.0 C 8500.0,2683.0 8491.0,2700.0 8465.0,2700.0 C 8444.0,2700.0 8440.0,2708.0 8425.0,2772.0 C 8416.0,2812.0 8396.0,2868.0 8380.0,2896.0 C 8364.0,2925.0 8354.0,2951.0 8357.0,2954.0 C 8382.0,2978.0 8433.0,2935.0 8445.0,2879.0 C 8456.0,2832.0 8468.0,2854.0 8475.0,2934.0 C 8485.0,3043.0 8520.0,3038.0 8520.0,2928.0 C 8520.0,2888.0 8540.0,2885.0 8603.0,2914.0 C 8634.0,2929.0 8675.0,2940.0 8700.0,2940.0 C 8740.0,2940.0 8742.0,2941.0 8736.0,2965.0 C 8731.0,2986.0 8733.0,2990.0 8750.0,2990.0 C 8761.0,2990.0 8773.0,2984.0 8776.0,2976.0 C 8786.0,2951.0 8851.0,2981.0 8915.0,3042.0 C 9001.0,3122.0 9140.0,3319.0 9140.0,3360.0 C 9140.0,3387.0 9089.0,3457.0 8829.0,3788.0 L 8518.0,4184.0 L 8525.0,6229.0 L 8532.0,8275.0 L 8745.0,8485.0 L 8958.0,8695.0 L 9238.0,9074.0 C 9393.0,9283.0 9517.0,9457.0 9514.0,9461.0 C 9512.0,9465.0 9499.0,9471.0 9485.0,9474.0 C 9471.0,9478.0 9438.0,9494.0 9411.0,9510.0 C 9356.0,9544.0 9298.0,9549.0 9232.0,9526.0 C 9205.0,9516.0 9117.0,9509.0 8952.0,9504.0 L 8711.0,9497.0 L 8621.0,9580.0 C 8571.0,9626.0 8528.0,9672.0 8524.0,9682.0 C 8521.0,9694.0 8509.0,9700.0 8490.0,9700.0 C 8444.0,9700.0 8430.0,9710.0 8430.0,9741.0 C 8430.0,9765.0 8419.0,9778.0 8370.0,9814.0 L 8309.0,9858.0 L 8083.0,9759.0 C 7959.0,9705.0 7852.0,9656.0 7846.0,9651.0 C 7840.0,9646.0 7808.0,9635.0 7775.0,9626.0 C 7742.0,9617.0 7622.0,9564.0 7508.0,9508.0 L 7301.0,9406.0 L 7258.0,9311.0 C 7222.0,9231.0 7197.0,9195.0 7099.0,9082.0 C 7035.0,9008.0 6978.0,8934.0 6973.0,8916.0 C 6960.0,8871.0 6919.0,8867.0 6894.0,8909.0 C 6876.0,8940.0 6852.0,8949.0 6738.0,8965.0 C 6711.0,8969.0 6690.0,8976.0 6690.0,8981.0 C 6690.0,8995.0 6664.0,8992.0 6651.0,8977.0 C 6632.0,8953.0 6533.0,8968.0 6477.0,9003.0 C 6429.0,9032.0 6427.0,9033.0 6330.0,9026.0 C 6197.0,9017.0 6106.0,9037.0 6033.0,9092.0 C 5984.0,9129.0 5978.0,9131.0 5949.0,9121.0 C 5902.0,9105.0 5873.0,9108.0 5840.0,9132.0 C 5811.0,9153.0 5809.0,9153.0 5775.0,9137.0 C 5745.0,9123.0 5707.0,9120.0 5551.0,9120.0 C 5376.0,9120.0 5362.0,9121.0 5345.0,9140.0 C 5335.0,9151.0 5322.0,9160.0 5315.0,9160.0 C 5308.0,9160.0 5296.0,9168.0 5287.0,9178.0 C 5278.0,9187.0 5039.0,9346.0 4756.0,9530.0 C 4331.0,9806.0 4241.0,9869.0 4240.0,9888.0 C 4240.0,9904.0 4234.0,9910.0 4217.0,9910.0 C 4201.0,9910.0 4189.0,9919.0 4182.0,9935.0 C 4173.0,9953.0 4163.0,9960.0 4141.0,9960.0 C 4125.0,9960.0 4085.0,9975.0 4053.0,9994.0 L 3995.0,10028.0 L 3561.0,10039.0 L 3127.0,10051.0 L 3000.0,10140.0 L 2872.0,10230.0 L 2053.0,10236.0 L 1235.0,10241.0 L 1097.0,10096.0" fill="pink"/>
</svg>

<?xml version="1.0" standalone="no"?>
<!DOCTYPE svg PUBLIC "-//W3C//DTD SVG 20010904//EN"
 "http://www.w3.org/TR/2001/REC-SVG-20010904/DTD/svg10.dtd">
<svg version="1.0" xmlns="http://www.w3.org/2000/svg"
 width="1024.000000pt" height="1024.000000pt" viewBox="0 0 1024.000000 1024.000000"
 preserveAspectRatio="xMidYMid meet">
<metadata>
Created by potrace 1.10, written by Peter Selinger 2001-2011
</metadata>
<g transform="translate(0.000000,1024.000000) scale(0.100000,-0.100000)"
fill="#000000" stroke="none">
<path d="M1097 10096 c-76 -80 -165 -180 -198 -223 -51 -67 -57 -79 -45 -92
46 -53 75 -154 81 -280 3 -61 20 -81 66 -81 34 0 59 -9 59 -21 0 -5 -7 -9 -15
-9 -8 0 -19 -8 -24 -18 -14 -26 8 -49 61 -62 39 -10 47 -17 55 -43 9 -31 10
-32 64 -29 50 3 56 1 85 -30 28 -29 32 -42 37 -106 6 -70 5 -74 -24 -106 -36
-41 -40 -106 -9 -165 10 -21 29 -78 41 -126 20 -79 25 -88 55 -102 34 -16 43
-42 70 -193 4 -22 22 -51 47 -77 38 -40 45 -43 93 -43 50 0 53 -1 62 -32 6
-18 13 -64 17 -102 7 -86 27 -122 71 -131 28 -5 38 -15 59 -56 14 -28 34 -63
45 -77 l21 -26 -44 -27 c-24 -15 -47 -34 -50 -42 -3 -8 21 -86 54 -174 55
-143 60 -164 56 -218 -4 -56 -2 -63 30 -101 l33 -41 -21 -19 c-19 -17 -20 -28
-18 -150 l3 -131 -33 -42 c-18 -22 -46 -49 -62 -58 -23 -14 -29 -24 -29 -51 0
-45 -24 -88 -59 -106 -37 -19 -50 -85 -26 -123 9 -13 15 -36 13 -51 -3 -25 -8
-28 -70 -37 -61 -9 -73 -15 -128 -63 -33 -29 -60 -60 -60 -69 0 -9 -6 -13 -14
-10 -8 3 -30 9 -49 12 -32 6 -35 5 -46 -26 -6 -17 -11 -59 -11 -91 0 -56 -4
-65 -50 -131 -27 -38 -69 -83 -92 -98 -47 -32 -56 -47 -57 -100 -1 -45 -26
-69 -74 -69 -28 0 -40 -6 -57 -29 -42 -60 -71 -139 -77 -212 l-6 -72 -104
-119 c-56 -65 -103 -120 -103 -122 0 -1 27 0 60 2 57 4 60 3 60 -19 0 -12 -10
-33 -22 -46 -21 -22 -21 -26 -7 -51 11 -21 24 -28 52 -30 23 -2 41 -10 47 -21
5 -10 27 -26 50 -35 37 -14 39 -18 29 -39 -8 -18 -7 -33 5 -62 9 -20 16 -46
16 -56 0 -32 49 -25 61 9 5 15 23 36 39 46 17 9 33 28 36 42 6 21 4 36 -8 109
-3 17 6 21 87 31 82 10 172 39 248 79 35 18 47 12 110 -50 109 -107 157 -199
94 -181 -71 21 -82 19 -97 -16 -18 -40 -49 -46 -157 -28 -93 16 -158 7 -179
-25 -15 -23 -14 -27 11 -71 l27 -46 -29 -36 c-16 -20 -34 -37 -40 -39 -6 -2
-18 14 -27 37 -12 31 -21 40 -39 40 -13 0 -27 -3 -31 -7 -15 -15 -91 -1 -116
22 -44 40 -65 40 -95 1 -21 -27 -26 -44 -23 -71 4 -33 2 -35 -24 -35 -38 0
-99 -42 -87 -61 14 -22 10 -52 -11 -79 -46 -58 -2 -176 82 -220 27 -14 48 -31
48 -38 0 -7 -13 -33 -30 -57 -16 -24 -30 -55 -30 -69 0 -22 -4 -26 -30 -26
-30 0 -34 -7 -31 -55 1 -11 -10 -36 -24 -55 -23 -32 -24 -35 -8 -42 10 -3 35
-7 55 -7 27 -1 40 -7 48 -21 6 -11 21 -20 33 -20 20 0 990 -536 3347 -1849
l616 -342 22 -157 22 -157 -45 -40 c-40 -36 -45 -45 -51 -97 l-7 -58 34 0 c19
0 53 -9 77 -20 39 -18 42 -22 42 -58 0 -24 7 -48 18 -60 29 -33 802 -611 1199
-896 l373 -267 37 26 c43 29 69 32 94 9 12 -11 27 -13 53 -9 32 6 36 11 36 37
0 16 10 42 22 59 l22 30 17 -33 17 -33 7 50 c9 58 41 122 66 130 12 4 21 24
29 63 20 109 54 187 132 306 125 192 163 273 181 396 16 104 54 210 104 290
12 19 26 46 31 60 7 17 38 41 96 73 l87 49 -2 71 c-2 68 1 77 50 176 46 91 50
105 38 120 -34 39 -38 58 -27 151 6 51 16 106 24 124 34 83 266 186 417 186
l76 0 41 44 c23 24 51 47 64 51 62 19 95 85 67 136 -12 22 8 60 21 39 4 -7 16
-7 39 1 29 10 32 15 29 40 l-5 29 24 -22 c17 -16 22 -29 18 -45 -4 -18 -1 -23
15 -23 40 0 60 19 60 55 0 48 -9 65 -35 65 -21 0 -25 8 -40 72 -9 40 -29 96
-45 124 -16 29 -26 55 -23 58 25 24 76 -19 88 -75 11 -47 23 -25 30 55 10 109
45 104 45 -6 0 -40 20 -43 83 -14 31 15 72 26 97 26 40 0 42 1 36 25 -5 21 -3
25 14 25 11 0 23 -6 26 -14 10 -25 75 5 139 66 86 80 225 277 225 318 0 27
-51 97 -311 428 l-311 396 7 2045 7 2046 213 210 213 210 280 379 c155 209
279 383 276 387 -2 4 -15 10 -29 13 -14 4 -47 20 -74 36 -55 34 -113 39 -179
16 -27 -10 -115 -17 -280 -22 l-241 -7 -90 83 c-50 46 -93 92 -97 102 -3 12
-15 18 -34 18 -46 0 -60 10 -60 41 0 24 -11 37 -60 73 l-61 44 -226 -99 c-124
-54 -231 -103 -237 -108 -6 -5 -38 -16 -71 -25 -33 -9 -153 -62 -267 -118
l-207 -102 -43 -95 c-36 -80 -61 -116 -159 -229 -64 -74 -121 -148 -126 -166
-13 -45 -54 -49 -79 -7 -18 31 -42 40 -156 56 -27 4 -48 11 -48 16 0 14 -26
11 -39 -4 -19 -24 -118 -9 -174 26 -48 29 -50 30 -147 23 -133 -9 -224 11
-297 66 -49 37 -55 39 -84 29 -47 -16 -76 -13 -109 11 -29 21 -31 21 -65 5
-30 -14 -68 -17 -224 -17 -175 0 -189 1 -206 20 -10 11 -23 20 -30 20 -7 0
-19 8 -28 18 -9 9 -248 168 -531 352 -425 276 -515 339 -516 358 0 16 -6 22
-23 22 -16 0 -28 9 -35 25 -9 18 -19 25 -41 25 -16 0 -56 15 -88 34 l-58 34
-434 11 -434 12 -127 89 -128 90 -819 6 -818 5 -138 -145z"/>
</g>
</svg>
